images/team/github.svg

<svg height="32" viewBox="0 0 32 32" width="32" xmlns="http://www.w3.org/2000/svg"><g fill="none" fill-rule="evenodd"><path d="m2 0h28c1.1045695 0 2 .8954305 2 2v28c0 1.1045695-.8954305 2-2 2h-28c-1.1045695 0-2-.8954305-2-2v-28c0-1.1045695.8954305-2 2-2z" fill="#fff"/><path d="m8.77708628 18.137824c-.06641807-.0670682-.06641807-.1341364 0-.2012045.13281062-.1341364.2988813-.1844375.49810999-.1509034.1992542.033534.31548582.0670681.34869485.1006022.23246323.1006023.48984598.3269445.77209728.6790782.2822513.352108.506425.5952173.6724957.7293536.7970168.6706818 1.6106126.720983 2.4408384.1509034.0664181-.2347386.1743602-.4359431.3237753-.6036394.1494152-.1676704.2905918-.285014.423428-.3521079.1328616-.0670682.3653248-.1676705.6974152-.3018068-1.0959236-.1006023-1.9842525-.2934362-2.6650377-.5784759-.6807852-.2850398-1.2204447-.6455184-1.6189531-1.0814616-.5313446-.6036136-.8551454-1.3916647-.97137702-2.3641533-.11625712-.9724887-.04152404-1.861142.22417373-2.6659602.19925419-.5030114.48153099-.9556958.84680489-1.3581307-.2656723-.83835222-.2158588-1.79407379.1494406-2.86716467 1.0626891.06706818 2.025751.43594317 2.8891859 1.10662497 1.6604517-.43594317 3.3873214-.45271021 5.1805837-.05030113.2324632-.16767045.5894731-.37724564 1.0709786-.62877707.4815309-.25150568 1.0876085-.39403844 1.8182073-.42757253.1328361.36887499.2241737.80481817.2739873 1.30782952.0498135.50301135.0249195.97248862-.0747076 1.40843179.7637822.80481812 1.1622906 1.87790902 1.1954997 3.21927262 0 1.0730909-.1826242 1.9617443-.5479236 2.6659602-.3652993.7042159-1.0128755 1.2910625-1.9427284 1.760514-.6309716.3018326-1.4611975.4862443-2.4906775.5533125.464952.2347386.8053318.4778736 1.0211905.7293793.2158842.2515057.3570099.6455184.4234534 1.1820638v1.5845244l.0497881 1.5341718c.0996271.1676962.2158842.3102032.3487203.4275982.1328362.1173694.2490678.2012046.3486949.2515057.0996016.0503012.1328361.1257657.0996016.226368-.033209.1006023-.1660452.1509034-.3984829.1509034-.5645791 0-1.0128755-.2012045-1.3449658-.6036394-.0996271-.1676704-.1494407-.3688492-.1494407-.6036136v-2.4144545c0-.2682727-.0664181-.4611066-.1992542-.5784759-.1328361-.1173951-.2656723-.1928339-.3985084-.226368v3.1689715c0 .5700795.0664181.9389545.1992542 1.106625.1328361.1676704.2158587.3353666.2490933.5030113.033209.0335341.0082895.0586718-.0747331.0754389-.0829971.0167413-.2241482-.0083707-.4234279-.0754389-.4317175-.1006022-.7305988-.3269702-.8966439-.6790782-.1660452-.3521079-.2490678-.7293793-.2490678-1.1317884v-3.1185931h-.6475761v3.1186704c0 .4024091-.0830481.7880769-.2490933 1.1569261-.2324377.469503-.6641807.7209829-1.2951268.754517-.0996271-.0335341-.1494406-.0670682-.1494406-.1005765.033209-.0335598.1328361-.2012045.2988813-.5030113.033209-.0670682.074733-.2012046.1245466-.4024091.049839-.2012046.0747331-.4359432.0747331-.7042159v-3.1689973c-.1328362.0335341-.2573828.1089729-.3736144.226368s-.1743602.3102032-.1743602.5784759v2.4144545c0 .2347129-.0498135.4359432-.1494406.6036136-.2988813.4024091-.7472033.6036394-1.3449404.6036394-.2324632 0-.3652993-.0503011-.3985084-.1509034-.0332345-.0670682-.0249195-.1257657.0249195-.1760668.0498391-.0503012.1245467-.1089987.2241738-.1760669s.1660451-.1173951.1992542-.1509034c.1328361-.1006023.2324377-.2347386.2988813-.4024091.0996271-.1341363.1245211-.4862443.0747075-1.0563238-.0498135-.5700795-.0581285-.9389545-.0249195-1.106625-.8634604.3018068-1.7434742.1508777-2.6401436-.4527102-.2656723-.2682727-.5313446-.6539405-.79701683-1.1569261-.1992542-.3689008-.5977626-.8048439-1.19549969-1.3078553z" fill="#000"/></g></svg>

<?xml version="1.0" encoding="UTF-8"?>
<svg width="32px" height="32px" viewBox="0 0 32 32" version="1.1" xmlns="http://www.w3.org/2000/svg" xmlns:xlink="http://www.w3.org/1999/xlink">
    <!-- Generator: Sketch 49.3 (51167) - http://www.bohemiancoding.com/sketch -->
    <title>github</title>
    <desc>Created with Sketch.</desc>
    <defs></defs>
    <g id="👨‍👨‍👧‍👧-team" stroke="none" stroke-width="1" fill="none" fill-rule="evenodd">
        <g id="team" transform="translate(-192.000000, -1303.000000)">
            <g transform="translate(160.000000, 923.000000)" id="member">
                <g>
                    <g id="info" transform="translate(8.000000, 304.000000)">
                        <g transform="translate(24.000000, 15.000000)" id="github">
                            <g transform="translate(0.000000, 61.000000)">
                                <path d="M2,0 L30,0 C31.1045695,-2.02906125e-16 32,0.8954305 32,2 L32,30 C32,31.1045695 31.1045695,32 30,32 L2,32 C0.8954305,32 1.3527075e-16,31.1045695 0,30 L0,2 C-1.3527075e-16,0.8954305 0.8954305,2.02906125e-16 2,0 Z" id="input-bg" fill="#FFFFFF"></path>
                                <path d="M8.77708628,18.137824 C8.71066821,18.0707558 8.71066821,18.0036876 8.77708628,17.9366195 C8.9098969,17.8024831 9.07596758,17.752182 9.27519627,17.7857161 C9.47445047,17.8192501 9.59068209,17.8527842 9.62389112,17.8863183 C9.85635435,17.9869206 10.1137371,18.2132628 10.3959884,18.5653965 C10.6782397,18.9175045 10.9024134,19.1606138 11.0684841,19.2947501 C11.8655009,19.9654319 12.6790967,20.0157331 13.5093225,19.4456535 C13.5757406,19.2109149 13.6836827,19.0097104 13.8330978,18.8420141 C13.982513,18.6743437 14.1236896,18.5570001 14.2565258,18.4899062 C14.3893874,18.422838 14.6218506,18.3222357 14.953941,18.1880994 C13.8580174,18.0874971 12.9696885,17.8946632 12.2889033,17.6096235 C11.6081181,17.3245837 11.0684586,16.9641051 10.6699502,16.5281619 C10.1386056,15.9245483 9.8148048,15.1364972 9.69857318,14.1640086 C9.58231606,13.1915199 9.65704914,12.3028666 9.92274691,11.4980484 C10.1220011,10.995037 10.4042779,10.5423526 10.7695518,10.1399177 C10.5038795,9.30156548 10.553693,8.34584391 10.9189924,7.27275303 C11.9816815,7.33982121 12.9447434,7.7086962 13.8081783,8.379378 C15.46863,7.94343483 17.1954997,7.92666779 18.988762,8.32907687 C19.2212252,8.16140642 19.5782351,7.95183123 20.0597406,7.7002998 C20.5412715,7.44879412 21.1473491,7.30626136 21.8779479,7.27272727 C22.010784,7.64160226 22.1021216,8.07754544 22.1519352,8.58055679 C22.2017487,9.08356814 22.1768547,9.55304541 22.0772276,9.98898858 C22.8410098,10.7938067 23.2395182,11.8668976 23.2727273,13.2082612 C23.2727273,14.2813521 23.0901031,15.1700055 22.7248037,15.8742214 C22.3595044,16.5784373 21.7119282,17.1652839 20.7820753,17.6347354 C20.1511037,17.936568 19.3208778,18.1209797 18.2913978,18.1880479 C18.7563498,18.4227865 19.0967296,18.6659215 19.3125883,18.9174272 C19.5284725,19.1689329 19.6695982,19.5629456 19.7360417,20.099491 L19.7360417,21.6840154 L19.7858298,23.2181872 C19.8854569,23.3858834 20.001714,23.5283904 20.1345501,23.6457854 C20.2673863,23.7631548 20.3836179,23.84699 20.483245,23.8972911 C20.5828466,23.9475923 20.6160811,24.0230568 20.5828466,24.1236591 C20.5496376,24.2242614 20.4168014,24.2745625 20.1843637,24.2745625 C19.6197846,24.2745625 19.1714882,24.073358 18.8393979,23.6709231 C18.7397708,23.5032527 18.6899572,23.3020739 18.6899572,23.0673095 L18.6899572,20.652855 C18.6899572,20.3845823 18.6235391,20.1917484 18.490703,20.0743791 C18.3578669,19.956984 18.2250307,19.8815452 18.0921946,19.8480111 L18.0921946,23.0169826 C18.0921946,23.5870621 18.1586127,23.9559371 18.2914488,24.1236076 C18.4242849,24.291278 18.5073075,24.4589742 18.5405421,24.6266189 C18.5737511,24.660153 18.5488316,24.6852907 18.465809,24.7020578 C18.3828119,24.7187991 18.2416608,24.6936871 18.0423811,24.6266189 C17.6106636,24.5260167 17.3117823,24.2996487 17.1457372,23.9475407 C16.979692,23.5954328 16.8966694,23.2181614 16.8966694,22.8157523 L16.8966694,19.6971592 L16.2490933,19.6971592 L16.2490933,22.8158296 C16.2490933,23.2182387 16.1660452,23.6039065 16,23.9727557 C15.7675623,24.4422587 15.3358193,24.6937386 14.7048732,24.7272727 C14.6052461,24.6937386 14.5554326,24.6602045 14.5554326,24.6266962 C14.5886416,24.5931364 14.6882687,24.4254917 14.8543139,24.1236849 C14.8875229,24.0566167 14.9290469,23.9224803 14.9788605,23.7212758 C15.0286995,23.5200712 15.0535936,23.2853326 15.0535936,23.0170599 L15.0535936,19.8480626 C14.9207574,19.8815967 14.7962108,19.9570355 14.6799792,20.0744306 C14.5637476,20.1918257 14.505619,20.3846338 14.505619,20.6529065 L14.505619,23.067361 C14.505619,23.3020739 14.4558055,23.5033042 14.3561784,23.6709746 C14.0572971,24.0733837 13.6089751,24.274614 13.011238,24.274614 C12.7787748,24.274614 12.6459387,24.2243129 12.6127296,24.1237106 C12.5794951,24.0566424 12.5878101,23.9979449 12.6376491,23.9476438 C12.6874882,23.8973426 12.7621958,23.8386451 12.8618229,23.7715769 C12.96145,23.7045087 13.027868,23.6541818 13.0610771,23.6206735 C13.1939132,23.5200712 13.2935148,23.3859349 13.3599584,23.2182644 C13.4595855,23.0841281 13.4844795,22.7320201 13.4346659,22.1619406 C13.3848524,21.5918611 13.3765374,21.2229861 13.4097464,21.0553156 C12.546286,21.3571224 11.6662722,21.2061933 10.7696028,20.6026054 C10.5039305,20.3343327 10.2382582,19.9486649 9.97258597,19.4456793 C9.77333177,19.0767785 9.37482337,18.6408354 8.77708628,18.137824 Z" id="Path" fill="#000000"></path>
                            </g>
                        </g>
                    </g>
                </g>
            </g>
        </g>
    </g>
</svg>
